X:1
T:Title
%%score { ( 1 3 ) | 2 }
L:1/8
M:4/4
K:Ab
V:1 treble nm="Grand Piano"
V:3 treble 
V:2 bass 
V:1
 z4 z2[Q:1/4=100] [A,C]>[B,D] | [CE]>[CE] [CE]>[CE] [CE]2 [CE]>[CE] | F2 F2 F2 [=DF]>[DF] | %3
 G>G G>G G2 G>[EG] | [EA]2 [CA]2 B2 B>B | c>c c>c c2 c>c | [Fd]>[Fd] [Fd]>[Fd] [Fd]2 [F=d]>[Ad] | %7
 [Ge]>[Ge] [Ae]>e e2 d>d | c2 B2 [CEA]4 | [Ec]4 z4 | [DA]4 z4 | G2 A2 B>B A>B | [Ec]6 z2 | %13
 [Ec]4 z4 | [Fd]2[K:bass] [Fd]2[K:treble] z4 | A>A A>A G2 G2 |[M:3/4] [CA]6 |] %17
V:2
 z4 z2 [A,,E,]>[A,,E,] | [A,,A,]>[A,,A,] [A,,A,]>[A,,A,] [A,,A,]2 [A,,A,]>[A,,A,] | %2
 [D,A,D]2 [D,A,D]2 [D,A,D]2 [B,,B,]>[B,,B,] | %3
 [E,B,E]>[E,B,E] [E,B,E]>[E,B,E] [E,B,E]2 [E,B,E]>[D,B,] | %4
 [C,A,]2 [A,,A,]2 [E,G,E]2 [E,G,E]>[E,G,E] | [A,E]>[A,E] [A,E]>[A,E] [A,E]2 [A,_G]>[A,G] | %6
 [D,A,]>[D,A,] [D,A,]>[D,A,] [D,A,]2 [B,,B,]>[B,,B,] | %7
 [E,B,]>[E,B,] [F,B,]>[G,B,E] [A,CE]2 [G,B,E]>[G,B,E] | [A,E]2 [E,DE]2 A,,4 | %9
 [A,,A,]>A,, C,>E, [A,E]2 D>C | E,>E, E,>E, [E,B,D]2 z2 | %11
 [E,B,D]2 [E,A,C]2 [E,G,E]>[E,G,D] [E,A,C]>[E,G,D] | A,>A, E,>C, A,,2 z2 | %13
 [A,,A,]>A,, A,,>A,, [A,E]2[K:treble] _G>G | [D,A,]2 [D,A,]2 [D,A,]2 [D,D]>[D,D] | %15
 [E,CE]>[E,CE] [E,CE]>[E,CE] [E,B,E]2 [E,B,D]2 |[M:3/4] [A,,A,]6 |] %17
V:3
 x8 | x8 | x8 | x8 | x8 | x8 | x8 | x8 | x8 | z z/ A,/ A,>A, c2 B>A | B,>B, B,>B, G2 (3EF_G | x8 | %12
 z2 A,>A, A,2 (3EAB | z z/ A,/ A,>A, c2 c>c | %14
 z z/[K:bass] [D,A,]/ z z/ [D,A,]/[K:treble] [Fd]2 [Fc]>[FB] | x8 |[M:3/4] x6 |] %17

